X: 16217
T: Greening The Rainbow
R: jig
M: 6/8
K: Gmajor
d2c|:"G"(BAG)"G"(gdg)|"Bm"(fde) "Bm"(f2g)|"G"G2G "Em" e2e|"G"(d2{e}d) "G"(BAG)|
"Em"(E2{F}E) "C"(cec)|"G"BGA "G"B2c|"D"(AFG) "Am"A2B|1 "G"G3 (Bcd):|2 "G"(G{A}G{F}G) (Bcd)||
|:"G"(B2d) (BdB)|"G"(BdB) (dBd)|"C"(c2e) (cec)|"C"(cec) (ece)|
"G"(B2d) (BdB)|"G"(BdB) (dBd)|"Em"(gfe) "G"(dcB)|"Am"(AGA) "G"(Bcd):|

